X:12
T:THE CRANBERRY TART/The Eaves Dropper    #4
M:6/8
L:1/8
Q:116
R:JIG
K:G
|:"G" GBB BAG| Bdd dBG| "C" cee "G" dBG| "D7" BAA ABA|!
|"G" GBB BAG| Bdd dBG| "C" cee "D7" dBG|1"G" BGG G2 g:|2 "G" BGG G2 d||!
"G" gfg "D7" afd| "C" efg "G" d2 B| "C" cee "G" dBG| "D7" BAA A2 d|!
"G" gab "D7" afd| "C" efg "G" dBG| "Am" cee "D7" dBA| "G" BGG "D7" G2 d|
!
"G" gfg "D7" afd| "C" efg "G" d2 B| "C" cee "G" dBG| "A7" BAA "D7" ABA|!
|"G" GBB BAG| Bdd dBG| "C" cee "D7" dBG|"G" BGG G2||
